svg/regular/bx-bracket.svg

<svg xmlns="http://www.w3.org/2000/svg" width="24" height="24"><path d="M10 4V2H4v20h6v-2H6V4zm4 16v2h6V2h-6v2h4v16z"/></svg>

<svg xmlns="http://www.w3.org/2000/svg" width="24" height="24" viewBox="0 0 24 24"><path d="M10 4L10 2 4 2 4 22 10 22 10 20 6 20 6 4zM14 20L14 22 20 22 20 2 14 2 14 4 18 4 18 20z"/></svg>
